azure-patterns/svg-genomics.svg

<svg xmlns="http://www.w3.org/2000/svg" viewBox="0 0 66.997 130"><path d="M15.59 88.95a1.585 1.585 0 0 1-1.295-.432 75.011 75.011 0 0 1-6.473-5.61A25.8 25.8 0 0 1 1.35 56.585a31.144 31.144 0 0 1 8.63-12.514A97.337 97.337 0 0 1 29.4 30.694c3.884-2.158 7.767-3.884 11.651-6.041a29.192 29.192 0 0 0 15.1-20.282c0-2.589 3.021-4.747 6.041-4.315a5.37 5.37 0 0 1 4.75 6.044 5.473 5.473 0 0 1-.432 2.589 36.6 36.6 0 0 1-12.946 21.142 61.969 61.969 0 0 1-13.377 8.2 106.584 106.584 0 0 0-20.282 12.513 31.416 31.416 0 0 0-7.336 7.767c-2.589 5.61-1.726 12.514 2.589 16.83 3.021 2.589 6.473 5.178 9.494 7.336.432.432.863.432 1.295.863-3.453 2.16-6.905 3.884-10.357 5.61zM51.407 97.58a1.585 1.585 0 0 1 1.295.432 82.843 82.843 0 0 1 6.473 6.041A30.5 30.5 0 0 1 66.51 123.9a5.614 5.614 0 0 1-4.747 5.61 5.37 5.37 0 0 1-6.041-4.747 8.425 8.425 0 0 0-.432-3.021 23.079 23.079 0 0 0-11.22-16.83c-1.295-.863-2.158-1.295-3.452-2.158 3.882-1.721 7.337-3.447 10.789-5.174z"/><path d="M51.407 40.619a1.585 1.585 0 0 1 1.295.432 75.011 75.011 0 0 1 6.473 5.61 25.8 25.8 0 0 1 6.473 26.323A31.144 31.144 0 0 1 57.017 85.5 97.337 97.337 0 0 1 37.6 98.875c-3.884 2.158-7.767 3.884-11.651 6.041a29.192 29.192 0 0 0-15.1 20.282 5.37 5.37 0 0 1-6.049 4.747A5.37 5.37 0 0 1 .055 123.9a5.473 5.473 0 0 1 .432-2.589 36.6 36.6 0 0 1 12.945-21.141 61.969 61.969 0 0 1 13.377-8.2 119.849 119.849 0 0 0 20.282-12.082 31.416 31.416 0 0 0 7.336-7.767c2.589-5.61 1.726-12.514-2.589-16.83-3.021-2.589-6.041-4.747-9.062-7.336-.432-.432-.863-.432-1.295-.863 3.019-3.021 6.474-4.747 9.926-6.473zM15.59 31.988a1.585 1.585 0 0 1-1.295-.432 82.844 82.844 0 0 1-6.473-6.041A30.5 30.5 0 0 1 .487 5.665C.055 2.644 2.213.487 5.233.055A5.37 5.37 0 0 1 11.275 4.8a8.425 8.425 0 0 0 .432 3.021 23.079 23.079 0 0 0 11.22 16.83 10.816 10.816 0 0 1 3.021 1.726c-3.454 2.159-6.906 3.885-10.358 5.611z"/><path d="M35.872 21.2l3.884-2.589H6.959v3.884h26.755a9.433 9.433 0 0 1 2.158-1.295zM46.66 11.707a17.491 17.491 0 0 0 2.158-3.884H10.412v3.884zM22.494 55.722H54v-3.883H26.378a32.955 32.955 0 0 0-3.884 3.883zM19.042 66.51H57.88v-3.883H19.474a11.947 11.947 0 0 0-.432 3.883zM23.357 75.141c.863.863 1.726 1.295 2.589 2.158h30.208v-3.884H21.631c.432.863 1.295 1.295 1.726 1.726zM37.166 107.506H16.021v3.884h25.892a45.862 45.862 0 0 0-4.747-3.884zM10.843 122.609h37.543l-1.295-3.884H10.843z"/></svg>

<svg xmlns="http://www.w3.org/2000/svg" viewBox="0 0 66.997 130">
                                
                              
  <path d="M15.59,88.95a1.585,1.585,0,0,1-1.295-.432,75.011,75.011,0,0,1-6.473-5.61A25.8,25.8,0,0,1,1.35,56.585,31.144,31.144,0,0,1,9.98,44.071,97.337,97.337,0,0,1,29.4,30.694c3.884-2.158,7.767-3.884,11.651-6.041a29.192,29.192,0,0,0,15.1-20.282c0-2.589,3.021-4.747,6.041-4.315A5.37,5.37,0,0,1,66.942,6.1a5.473,5.473,0,0,1-.432,2.589A36.6,36.6,0,0,1,53.564,29.831a61.969,61.969,0,0,1-13.377,8.2A106.584,106.584,0,0,0,19.905,50.544a31.416,31.416,0,0,0-7.336,7.767c-2.589,5.61-1.726,12.514,2.589,16.83,3.021,2.589,6.473,5.178,9.494,7.336.432.432.863.432,1.295.863C22.494,85.5,19.042,87.224,15.59,88.95Z"></path>
  <path d="M51.407,97.58a1.585,1.585,0,0,1,1.295.432,82.843,82.843,0,0,1,6.473,6.041A30.5,30.5,0,0,1,66.51,123.9a5.614,5.614,0,0,1-4.747,5.61,5.37,5.37,0,0,1-6.041-4.747,8.425,8.425,0,0,0-.432-3.021,23.079,23.079,0,0,0-11.22-16.83c-1.295-.863-2.158-1.295-3.452-2.158C44.5,101.033,47.955,99.307,51.407,97.58Z"></path>
  <path d="M51.407,40.619a1.585,1.585,0,0,1,1.295.432,75.011,75.011,0,0,1,6.473,5.61,25.8,25.8,0,0,1,6.473,26.323A31.144,31.144,0,0,1,57.017,85.5,97.337,97.337,0,0,1,37.6,98.875c-3.884,2.158-7.767,3.884-11.651,6.041a29.192,29.192,0,0,0-15.1,20.282h0A5.37,5.37,0,0,1,4.8,129.945,5.37,5.37,0,0,1,.055,123.9a5.473,5.473,0,0,1,.432-2.589A36.6,36.6,0,0,1,13.432,100.17a61.969,61.969,0,0,1,13.377-8.2A119.849,119.849,0,0,0,47.091,79.888a31.416,31.416,0,0,0,7.336-7.767c2.589-5.61,1.726-12.514-2.589-16.83-3.021-2.589-6.041-4.747-9.062-7.336-.432-.432-.863-.432-1.295-.863C44.5,44.071,47.955,42.345,51.407,40.619Z"></path>
  <path d="M15.59,31.988a1.585,1.585,0,0,1-1.295-.432,82.844,82.844,0,0,1-6.473-6.041A30.5,30.5,0,0,1,.487,5.665C.055,2.644,2.213.487,5.233.055A5.37,5.37,0,0,1,11.275,4.8a8.425,8.425,0,0,0,.432,3.021,23.079,23.079,0,0,0,11.22,16.83,10.816,10.816,0,0,1,3.021,1.726C22.494,28.536,19.042,30.262,15.59,31.988Z"></path>
  <path d="M35.872,21.2l3.884-2.589H6.959v3.884H33.714A9.433,9.433,0,0,1,35.872,21.2Z"></path>
  <path d="M46.66,11.707a17.491,17.491,0,0,0,2.158-3.884H10.412v3.884Z"></path>
  <path d="M22.494,55.722H54V51.839H26.378A32.955,32.955,0,0,0,22.494,55.722Z"></path>
  <path d="M19.042,66.51H57.88V62.627H19.474A11.947,11.947,0,0,0,19.042,66.51Z"></path>
  <path d="M23.357,75.141c.863.863,1.726,1.295,2.589,2.158H56.154V73.415H21.631C22.063,74.278,22.926,74.71,23.357,75.141Z"></path>
  <path d="M37.166,107.506H16.021v3.884H41.913A45.862,45.862,0,0,0,37.166,107.506Z"></path>
  <path d="M10.843,122.609H48.386l-1.295-3.884H10.843Z"></path>        
</svg>
